!!!!SEGMENT: pl-kk--kk-i-40--011-002_asola-giovanni-matteo--missa-primi-toni-et-in-terra.krn
!!!cenid: 16xx:1320
!!!COM: Asola, Giovanni Matteo
!!!COM-rismid: pe20000387
!!!CDT: <=1532-1609/10/01
!!!CNT: Italian
!!!OPR: Missa primi toni
!!!OTL: Et in terra
!!!OMV: 002
!!!PDT:
!!!AGN: Sacred; Mass
!!!SMS-siglum: PL-Kk
!!!SMS-shelfmark: Kk.I.40
!!!SMS-shelfwork: 011-002 M
!!!SMS-variant:
!!!SMS-altvar:
!!!NIFC-rismid: 1001154533
!!!URL-scan: http://repozytorium.nifc.pl/skany/pl-kk-nut--i-40
!!!ONB-nifc: UWAGA: części Mszy: 1. Kyrie, 2. Et in terra, 3. Sanctus, 4. Agnus Dei. Skan 0014-0016
**kern	**text
*Iempty	*
*I"Baſso Ripieno.	*
*clefF4	*
*k[]	*
*d:	*
*M2/1	*
*met(C|)	*
=1-	=1-
00r	.
=2-	=2-
.	.
=3-	=3-
00r	.
=4-	=4-
.	.
=5-	=5-
!LO:TX:t=P:problem:kreska pseudotaktowa	!
0r	.
=6-	=6-
*2\right	*
2.A\	Et
4AA/	in
2C/	ter-
!LO:TX:t=P:problem:kreska pseudotaktowa	!
2D/	-ra
=7-	=7-
2.E\	.
4D/	pax
2C/	.
!LO:TX:t=P:problem:kreska pseudotaktowa	!
2D/	ho-
=8-	=8-
2.BB/	-mi-
4BB/	-ni-
!LO:TX:t=P:problem:kreska pseudotaktowa	!
1AA	-b(us)
=9-	=9-
2r	.
1D	bo-
!LO:TX:t=P:problem:kreska pseudotaktowa	!
2GG/	-nae-
=10-	=10-
2D/	-vo-
2D/	-lun-
2A\	-ta-
!LO:TX:t=P:problem:kreska pseudotaktowa	!
2AA/	-tis.
=11-	=11-
!LO:TX:t=P:problem:oddech jako rozdzielacz słów:global	!
2D,<\	.
2D\	Lau-
2C/	-da-
4BB/	.
!LO:TX:t=P:problem:kreska pseudotaktowa	!
4AA/	.
=12-	=12-
2BB/	.
2BB/	-m(us)
!LO:TX:t=P:problem:kreska pseudotaktowa	!
1AA	Te
=13-	=13-
1r	.
2r	.
2.A\	be-
=14-	=14-
.	.
4AA/	-ne-
!LO:TX:t=P:problem:kreska pseudotaktowa	!
2D\	-di-
2GG/	-ci-
2AA/	-m(us)
=15-	=15-
!LO:TX:t=P:problem:kreska pseudotaktowa	!
1D	Te
!LO:TX:t=P:problem:kreska pseudotaktowa	!
1r	.
=16-	=16-
2r	.
1A	a-
2AA/	-do-
=17-	=17-
!LO:SIC:v:t=custos C	!
!LO:TX:t=P:problem:kreska pseudotaktowa	!
1F	-ra-
!LO:LB:g=original	!
2.C/	-m(us)
4C/	Te
=18-	=18-
!LO:TX:t=P:problem:kreska pseudotaktowa	!
1GG	.
2r	.
2D\	glo-
=19-	=19-
2F\	-ri-
!LO:TX:t=P:problem:kreska pseudotaktowa	!
2G\	-fi-
2.A\	-ca-
4G\	.
=20-	=20-
2F\	.
4E\	.
!LO:TX:t=P:problem:kreska pseudotaktowa	!
4D\	.
2E\	.
2E\	-m(us)
=21-	=21-
!LO:TX:t=P:problem:kreska pseudotaktowa	!
1D	Te
0r	.
=22-	=22-
.	.
!LO:TX:t=P:problem:kreska pseudotaktowa	!
1r	.
=23-	=23-
2.A\	Gra-
4AA/	-tias
2D/	.
!LO:TX:t=P:problem:kreska pseudotaktowa	!
2C#X/	a-
=24-	=24-
2D\	-gi-
2F\	-m(us)
1E	Ti-
=25-	=25-
!LO:TX:t=P:problem:kreska pseudotaktowa	!
1AA	-bi
00r	.
=26-	=26-
.	.
=27-	=27-
.	.
!LO:TX:t=P:problem:kreska pseudotaktowa	!
1r	.
=28-	=28-
1.D	pro-
!LO:TX:t=P:problem:kreska pseudotaktowa	!
2D\	-pter
=29-	=29-
1F	ma-
!LO:TX:t=P:problem:kreska pseudotaktowa	!
1Cny	-gna(m)
=30-	=30-
1.D	glo-
2D/	-ri-
=31-	=31-
!LO:TX:t=P:problem:kreska pseudotaktowa	!
1AA	-a(m)
1E	tu-
=32-	=32-
2AA,</	-am
2.A\	D(o-
4A\	-mi-
!LO:TX:t=P:problem:kreska pseudotaktowa	!
2A\	-n)e
=33-	=33-
!LO:LB:g=original	!
2E\	DE-
4F\	-(us)
2D/	Rex
4C#X/	cae-
2D/	-les-
=34-	=34-
!LO:TX:t=P:problem:kreska pseudotaktowa	!
1AA	-tis
0r	.
=35-	=35-
.	.
!LO:TX:t=P:problem:kreska pseudotaktowa	!
1r	.
=36-	=36-
2G\	De-
2GG/	.
!LO:TX:t=P:problem:kreska pseudotaktowa	!
1Cny,<	-us
=37-	=37-
1AA	Pa-
!LO:TX:t=P:problem:kreska pseudotaktowa	!
1GG	-ter
=38-	=38-
1D	O-
2.AA/	-mni-
4AA/	-po-
=39-	=39-
2D,<\	-tens
!LO:TX:t=P:problem:kreska pseudotaktowa	!
2D\	D(o-
4AA/	-mi-
4D/	-n)e
2GG/	Fi-
=40-	=40-
!LO:TX:t=P:problem:kreska pseudotaktowa	!
1AA	-li
1r	.
=41-	=41-
2r	.
!LO:TX:t=P:problem:kreska pseudotaktowa	!
2D/	U-
4D/	-ni-
2AA/	-ge-
!LO:TX:t=P:problem:kreska pseudotaktowa	!
4AA/	-ni-
=42-	=42-
2C,</	-te
1G	Je-
2GG/	-su
=43-	=43-
1D	x-
!LO:TX:t=P:problem:kreska pseudotaktowa	!
1GG	-te
=44-	=44-
0r	.
=45-	=45-
!LO:TX:t=P:problem:kreska pseudotaktowa	!
1r	.
2D/	Do-
4D/	-mi-
!LO:TX:t=P:problem:kreska pseudotaktowa	!
4AA/	-ne
=46-	=46-
2E\	De-
4C/	-(us)
2D/	a-
4AA/	-gn(us)
2E\	De-
=47-	=47-
!LO:TX:t=P:problem:kreska pseudotaktowa	!
1AA	-i
!LO:LB:g=original	!
2r	.
2.D\	Fi-
=48-	=48-
.	.
4D\	-li-
!LO:TX:t=P:problem:kreska pseudotaktowa	!
2D\	-us
1AA	Pa-
=49-	=49-
!LO:TX:t=P:problem:kreska pseudotaktowa	!
1D	-tris
1r	.
=50-	=50-
2r	.
2.A\	Fi-
4A\	-li-
!LO:TX:t=P:problem:kreska pseudotaktowa	!
2A\	-(us)
=51-	=51-
2.G\	Pa-
4F\	.
1E	.
=52-	=52-
!LO:TX:t=P:problem:kreska pseudotaktowa	!
1D	-tris
2r	.
*	*ij
2.D/	Fi-
=53-	=53-
.	.
4D/	-li-
2GG/	-us
1D	Pa-
=54-	=54-
0AA;	-tris
*	*Xij
=55||-	=55||-
*M2/1	*
*met(C|)	*
1D	Qui
2F\	tol-
2G\	-lis
=56-	=56-
!LO:TX:t=P:problem:kreska pseudotaktowa	!
1A	pec-
2F\	-ca-
2G\	-ta
=57-	=57-
1E	mun-
!LO:TX:t=P:problem:kreska pseudotaktowa	!
1D	-di
=58-	=58-
0r	.
=59-	=59-
!LO:TX:t=P:problem:kreska pseudotaktowa	!
1r	.
2r	.
*	*ij
2AA/	Qui
=60-	=60-
1D	tol-
2C/	-lis
!LO:TX:t=P:problem:kreska pseudotaktowa	!
2GG/	pec-
=61-	=61-
2AA/	-ca-
2AA/	-ta
1E	mun-
=62-	=62-
!LO:TX:t=P:problem:kreska pseudotaktowa	!
0AA	-di
*	*Xij
=63-	=63-
!LO:LB:g=original	!
0r	.
=64-	=64-
!LO:TX:t=P:problem:kreska pseudotaktowa	!
1r	.
2.E\	mi-
4E\	-ſe-
=65-	=65-
2E\	-re-
!LO:TX:t=P:problem:kreska pseudotaktowa	!
2E\	-re
1AA	no-
=66-	=66-
!LO:TX:t=P:problem:kreska pseudotaktowa	!
1E	-bis
00r	.
=67-	=67-
.	.
=68-	=68-
.	.
!LO:TX:t=P:problem:kreska pseudotaktowa	!
1r	.
=69-	=69-
2r	.
2E\	Qui
2D/	tol-
!LO:TX:t=P:problem:kreska pseudotaktowa	!
2BB/	-lis
=70-	=70-
2C/	p(ec-
1D	-ca)-
!LO:TX:t=P:problem:kreska pseudotaktowa	!
2C/	-ta
=71-	=71-
1D	mun-
!LO:TX:t=P:problem:kreska pseudotaktowa	!
1AA	-di
=72-	=72-
00r	.
=73-	=73-
.	.
=74-	=74-
1.G	Sus-
2GG/	-ci-
=75-	=75-
!LO:TX:t=P:problem:kreska pseudotaktowa	!
1C	-pe
1F	de-
=76-	=76-
2F\	-pre-
1B-X	-ca-
!LO:TX:t=P:problem:kreska pseudotaktowa	!
2G\	-ti-
=77-	=77-
2D/	-o-
2D,</	-nem
2A\	no-
2AA/	.
=78-	=78-
!LO:TX:t=P:problem:kreska pseudotaktowa	!
1D	-stram
2r	.
2D\	Qui
=79-	=79-
1A	se-
2G\	-des
!LO:TX:t=P:problem:kreska pseudotaktowa	!
2E\	.
=80-	=80-
1F	ad
2E\	dex-
2C/	-tra
=81-	=81-
1D	Pa-
!LO:TX:t=P:problem:kreska pseudotaktowa	!
1AA	-tris.
=82-	=82-
00r	.
=83-	=83-
.	.
=84-	=84-
!LO:TX:t=P:problem:kreska pseudotaktowa	!
0r	.
=85-	=85-
!LO:PB:g=original	!
2r	.
!LO:TX:t=P:problem:kreska pseudotaktowa	!
2A\	mi-
4F\	-se-
2G\	-re-
!LO:TX:t=P:problem:kreska pseudotaktowa	!
4A\	-re
=86-	=86-
2B-X\	no-
!LO:TX:t=P:problem:kreska pseudotaktowa	!
2A\	-bis
!LO:TX:t=P:problem:kreska pseudotaktowa	!
0r	.
=87-	=87-
.	.
2r	.
*	*ij
2D/	mi-
=88-	=88-
4GG/	-se-
2C/	-re-
4AA/	-re
1E	no-
=89-	=89-
!LO:TX:t=P:problem:kreska pseudotaktowa	!
0AA	-bis
*	*Xij
=90-	=90-
1r	.
2r	.
2.D/	Quo-
=91-	=91-
.	.
4D/	-ni-
!LO:TX:t=P:problem:kreska pseudotaktowa	!
2AA/	-am
2E\	Tu
4F\	so-
4D\	-l(us)
=92-	=92-
2E\	San-
!LO:TX:t=P:problem:kreska pseudotaktowa	!
2AA/	-ct(us)
1r	.
=93-	=93-
2r	.
!LO:TX:t=P:problem:kreska pseudotaktowa	!
2A\	Tu
4B-X\	so-
4G\	-l(us)
4.A\	Do-
8A\	-mi-
=94-	=94-
2D,</	-n(us)
!LO:TX:t=P:problem:kreska pseudotaktowa	!
2D/	Tu
1G	so-
=95-	=95-
2.C/	-lus
4D/	al-
2E\	-tiſ-
2C/	-si-
=96-	=96-
2G\	-m(us)
2GG/	.
!LO:TX:t=P:problem:kreska pseudotaktowa	!
1C	.
=97-	=97-
!LO:LB:g=original	!
!LO:TX:t=P:problem:kreska pseudotaktowa	!
00r	.
=98-	=98-
.	.
=99-	=99-
*lig	*
1G	JE-
1GG	-SU
*Xlig	*
=100-	=100-
!LO:TX:t=P:problem:kreska pseudotaktowa	!
1C	Chri-
*lig	*
1AA	.
=101-	=101-
1A	.
*Xlig	*
1G	-ste.
=102-	=102-
*M3/2	*
2D/	Cum
2D/	S(an)-
2D/	-cto
=103-	=103-
1E	Spi-
!LO:TX:t=P:problem:kreska pseudotaktowa	!
2E\	-ri-
=104-	=104-
!LO:TX:t=P:problem:kreska pseudotaktowa	!
1.D	-tu
=105-	=105-
1.r	.
=106-	=106-
*	*ij
2D\	Cum
2D\	S(an)-
!LO:TX:t=P:problem:kreska pseudotaktowa	!
2D\	-cto
=107-	=107-
1G	Spi-
2G\	-ri-
=108-	=108-
1F,<	-tu
*	*Xij
!LO:TX:t=P:problem:kreska pseudotaktowa	!
2C/	Cum
=109-	=109-
0C	S(an)-
=110-	=110-
.	.
1D	-cto
=111-	=111-
1A	Spi-
2AA/	-ri-
=112-	=112-
*M2/1	*
*met(C|)	*
2D,<\	-tu
!LO:TX:t=P:problem:kreska pseudotaktowa	!
2D\	in
2.A\	glo-
4A\	-ri-
=113-	=113-
2D/	-a
1F	De-
!LO:SIC:v:t=custos D	!
!LO:TX:t=P:problem:kreska pseudotaktowa	!
2C/	-i
=114-	=114-
!LO:LB:g=original	!
1D	Pa-
!LO:TX:t=P:problem:kreska pseudotaktowa	!
1AA	-tris
=115-	=115-
2r	.
2AA/	in
2.D\	glo-
4D\	-ri-
=116-	=116-
2GG/	-a
1C	De-
2AA/	-i
=117-	=117-
1D	Pa-
!LO:TX:t=P:problem:kreska pseudotaktowa	!
1AA	-tris
=118-	=118-
2r	.
*	*ij
2D\	in
2.A\	glo-
4A\	-ri-
=119-	=119-
2D\	-a
1F	De-
!LO:TX:t=P:problem:kreska pseudotaktowa	!
2C/	-i
=120-	=120-
1D	Pa-
!LO:TX:t=P:problem:kreska pseudotaktowa	!
1AA	-tris
*	*Xij
=121-	=121-
2r	.
2D\	in
2.F\	glo-
!LO:TX:t=P:problem:kreska pseudotaktowa	!
4F\	-ri-
=122-	=122-
2C/	-a
1C	De-
!LO:TX:t=P:problem:kreska pseudotaktowa	!
2GG/	-i
=123-	=123-
*lig	*
1D	Pa-
1AA	.
*Xlig	*
=124-	=124-
!LO:TX:t=P:problem:kreska pseudotaktowa	!
0D	-tris
=125-	=125-
*lig	*
1G	a-
1GG	.
*Xlig	*
=126-	=126-
0D;>	-men
=-	=-
*-	*-
!!!RDF**kern: < = below
!!!RDF**kern: > = above
!!!ENC: Marta Chmielewska
!!!END: 2021-08-02
!!!ENC: Anastazja Marusiak
!!!END: 2021-07-05
